X: 217
T:Astley's Hornpipe. JaW.216
T:Ashley's Hp,aka. JaW.216
M:C|
Q:180
S:James Winder Ms, Lancashire, 1835-41
R:Hornpipe
O:England
A:Wyresdale,Lancashire
H:1/8
Z:vmp.Chris Partington, Aug 2004
K:G
GABc dBGd|gfge edcB|cecA BdBG|ABcA GFED|!
GABc dBGd|gfge edcB|cecA BdBG|G2F2 G4||!
defg afdf gage fafe|defg afdB|cecA BdBA|!
GABc dBGd|gfge edcB|cecA BdBG|G2F2 G4|]
